src/komponenter/Veilederpanel/utklippstavlen.svg

<?xml version="1.0" encoding="UTF-8"?>
<svg role="presentation" focusable='false' width="49px" height="66px" viewBox="0 0 49 66" version="1.1" xmlns="http://www.w3.org/2000/svg" xmlns:xlink="http://www.w3.org/1999/xlink">
    <!-- Generator: Sketch 53.1 (72631) - https://sketchapp.com -->
    <title>Group</title>
    <desc>Created with Sketch.</desc>
    <defs>
        <path d="M-1.13686838e-13,8.79428571 L-1.13686838e-13,48.7075745 C-1.13686838e-13,50.1392671 1.12568131,51.3 2.51485016,51.3 L36.1865703,51.3 C37.5743187,51.3 38.7,50.1392671 38.7,48.7075745 L38.7,2.59242552 C38.7,1.16073289 37.5743187,0 36.1865703,0 L9.31666667,0 L-1.13686838e-13,8.79428571 Z" id="path-1"></path>
    </defs>
    <g id="Versjon-9---Opprett-avtale-med-expand" stroke="none" stroke-width="1" fill="none" fill-rule="evenodd">
        <g id="Opprett" transform="translate(-617.000000, -266.000000)">
            <g id="Group" transform="translate(617.000000, 266.000000)">
                <path d="M45.441,5.4 L3.1572,5.4 C1.4121,5.4 -3.55271368e-15,6.82818182 -3.55271368e-15,8.59272727 L-3.55271368e-15,62.5081818 C-3.55271368e-15,62.8372727 0.0495,63.1572727 0.1413,63.4554545 C0.2952,63.9563636 0.5688,64.4027273 0.927,64.7654545 C0.9963,64.8345455 1.0719,64.9063636 1.152,64.97 C1.6173,65.3609091 2.1987,65.6154545 2.8332,65.6827273 C2.9412,65.6936364 3.0492,65.7 3.1572,65.7 L45.441,65.7 C47.1861,65.7 48.6,64.27 48.6,62.5081818 L48.6,8.59272727 C48.6,6.82818182 47.1861,5.4 45.441,5.4" id="Fill-102" fill="#515658"></path>
                <g transform="translate(4.500000, 9.900000)">
                    <g id="farger/-ark/-lys-grå">
                        <mask id="mask-2" fill="white">
                            <use xlink:href="#path-1"></use>
                        </mask>
                        <g id="Mask"></g>
                        <g id="📄-ark" mask="url(#mask-2)" fill="#FFFFFF">
                            <g transform="translate(-6.000000, -7.000000)" id="Rectangle">
                                <rect x="0" y="0" width="49" height="65"></rect>
                            </g>
                        </g>
                    </g>
                    <path d="M9.31666667,0 L9.31666667,6.124713 C9.31666667,7.59934848 8.1183451,8.79428571 6.63953312,8.79428571 L0,8.79428571 L9.31666667,0 Z" id="Fill-59" fill="#C9C9C9"></path>
                    <g id="dokumenter/-ark-innhold/-info" transform="translate(1.433333, 7.328571)" fill="#515658">
                        <g id="Group" transform="translate(12.240000, 5.180000)">
                            <polygon id="Fill-100" points="9.44424 24.727174 9.44424 13.989774 9.44424 11.366474 2.08944 11.366474 0 11.366474 0 13.989774 2.08944 13.989774 2.08944 24.727174 0 24.727174 0 27.350474 11.53296 27.350474 11.53296 24.727174"></polygon>
                            <path d="M5.766912,9.12938 C8.219232,9.12938 10.208592,7.0855 10.208592,4.56506 C10.208592,2.04388 8.219232,0 5.766912,0 C3.313872,0 1.325232,2.04388 1.325232,4.56506 C1.325232,7.0855 3.313872,9.12938 5.766912,9.12938" id="Fill-101"></path>
                        </g>
                    </g>
                </g>
                <path d="M25.751314,7.46294177 C25.2011773,7.46294177 24.7561622,7.0030966 24.7561622,6.43237967 C24.7561622,5.86166274 25.2011773,5.39909122 25.751314,5.39909122 C26.2988227,5.39909122 26.7455898,5.86166274 26.7455898,6.43237967 C26.7455898,7.0030966 26.2988227,7.46294177 25.751314,7.46294177 M31.8947995,3.24345338 L28.1927648,3.24345338 L28.1927648,2.53369236 C28.1927648,1.13416358 27.0986234,0 25.751314,0 C24.3996246,0 23.3081112,1.13416358 23.3081112,2.53369236 L23.3081112,3.24345338 L19.6060765,3.24345338 C17.7813395,3.24345338 16.3,4.78020868 16.3,6.67411646 L16.3,10.8 L35.2,10.8 L35.2,6.67411646 C35.2,4.78020868 33.7195365,3.24345338 31.8947995,3.24345338" id="Fill-105" fill="#2F3237"></path>
            </g>
        </g>
    </g>
</svg>

<svg width="49" height="66" viewBox="0 0 49 66" xmlns="http://www.w3.org/2000/svg" xmlns:xlink="http://www.w3.org/1999/xlink"><defs><path d="M0 8.794v39.914C0 50.139 1.126 51.3 2.515 51.3h33.672c1.387 0 2.513-1.16 2.513-2.592V2.592C38.7 1.161 37.574 0 36.187 0H9.317L0 8.794z" id="utklippstavlen_svg__a"/></defs><g fill="none" fill-rule="evenodd"><path d="M45.441 5.4H3.157C1.412 5.4 0 6.828 0 8.593v53.915a3.204 3.204 0 001.152 2.462 3.121 3.121 0 002.005.73h42.284c1.745 0 3.159-1.43 3.159-3.192V8.593c0-1.765-1.414-3.193-3.159-3.193" fill="#515658"/><g transform="translate(4.5 9.9)"><mask id="utklippstavlen_svg__b" fill="#fff"><use xlink:href="#utklippstavlen_svg__a"/></mask><g mask="url(#utklippstavlen_svg__b)" fill="#FFF"><path d="M-6-7h49v65H-6z"/></g></g><path d="M13.817 9.9v6.125a2.673 2.673 0 01-2.677 2.67H4.5L13.817 9.9z" fill="#C9C9C9"/><g fill="#515658"><path d="M27.618 47.136V33.775h-9.445v2.623h2.09v10.738h-2.09v2.623h11.533v-2.623zM23.94 31.538c2.453 0 4.442-2.044 4.442-4.564 0-2.522-1.99-4.565-4.442-4.565-2.453 0-4.441 2.043-4.441 4.565 0 2.52 1.988 4.564 4.441 4.564"/></g><path d="M25.751 7.463c-.55 0-.995-.46-.995-1.03 0-.571.445-1.034.995-1.034.548 0 .995.463.995 1.033 0 .571-.447 1.03-.995 1.03m6.144-4.219h-3.702v-.71C28.193 1.135 27.099 0 25.75 0c-1.351 0-2.443 1.134-2.443 2.534v.71h-3.702c-1.825 0-3.306 1.536-3.306 3.43V10.8h18.9V6.674c0-1.894-1.48-3.43-3.305-3.43" fill="#2F3237"/></g></svg>
